blockchains/ethereum/assets/0x111111111117dC0aa78b770fA6A738034120C302/logo.svg

<svg width="250" height="250" viewBox="0 0 250 250" fill="none" xmlns="http://www.w3.org/2000/svg">
<g clip-path="url(#clip0_72_22015)">
<path d="M125 249.75C191.65 249.75 245.7 196.15 245.7 130.05C245.7 63.95 191.65 10.35 125 10.35C58.35 10.4 4.30005 63.95 4.30005 130.05C4.30005 196.15 58.35 249.75 125 249.75Z" fill="#ECF3FF"/>
<path d="M92.3999 57.05L50.1499 40.3V46.3L86.3499 78.6L83.9499 112.1L73.0999 157.6L58.5999 177.95L62.1999 206.65L80.2999 209.05L94.7999 206.65L109.3 209.05L134.65 193.5L139.5 168.35L169.65 139.65L182.9 149.2L196.15 168.35V206.65L214.25 201.85L232.35 162.35L237.2 112.1L172.05 17.55L161.2 15.15L92.3999 57.05Z" fill="white"/>
<path d="M28.4499 126.25C28.9499 122.2 29.1499 118.1 30.3999 114.3C33.7999 98.5 40.2999 83.4 49.9499 71.2C51.6499 69.05 53.0999 67.15 54.9999 65.2L44.1499 55.15C42.1999 58 40.2999 60.9 38.5999 63.75C29.6499 79.05 24.8499 96.3 23.6499 113.3C23.1499 117.6 23.3999 121.9 23.3999 126C23.3999 130.3 23.8999 134.4 24.5999 138.7C25.7999 147.1 27.9999 155.2 30.8999 162.9C28.9499 154.75 27.9999 146.6 27.7499 138.25C27.6999 134.35 27.6999 130.3 28.4499 126.25Z" fill="#94A6C4"/>
<path d="M77.9499 48.7001C71.8999 45.85 63.45 42.0001 57.45 39.1501C63 33.9001 73.1499 28.4 81.5999 24.8C75.4999 29.55 75.4999 39.6 77.9499 48.7001Z" fill="#94A6C4"/>
<path d="M53.55 89.35C50.15 97.75 48 106.6 47.25 115.2C47 117.35 46.75 119.5 47 121.65C47 123.8 47 125.95 47.25 128.1L47.5 131.5C47.5 132.45 47.75 133.65 48 134.6L48.95 141.05L49.2 134.6C49.2 133.65 49.2 132.45 49.45 131.5L49.95 128.4C50.2 126.25 50.65 124.1 50.9 122.2C51.15 120.05 51.85 118.15 52.35 116.2C54.5 108.05 58.15 100.65 62.5 93.7C65.4 89.15 68.8 85.1 72.4 81.25L63 72.4C58.85 77.9 55.95 83.4 53.55 89.35Z" fill="#94A6C4"/>
<path d="M193.3 48.45C180.5 43.9 175.45 45.35 175.45 45.35C175.45 45.35 167.5 66.65 137.05 68.1C137.3 68.3 164.6 84.1 193.3 48.45Z" fill="#94A6C4"/>
<path d="M202 90.8C200.8 117.15 180.3 126.95 164.35 125.05C155.65 123.85 142.85 127.9 142.85 127.9L126.7 155.65L121.4 157.55L130.55 140.8C130.55 140.8 108.85 148.7 107.15 149.4C105.45 150.1 98.7001 159.95 93.1501 170.2C91.9501 163 87.3501 158 87.3501 157.75C87.3501 158.95 89.7501 180.5 87.1001 186.45C84.4501 192.65 72.6001 196.75 72.6001 196.75L90.0001 203.2L91.2001 203.7L104.25 191.5L109.1 173.3L115.15 169C115.15 169 130.1 167.3 127.95 180.75C127 187.2 119.75 186.75 111.55 191.75C106.7 194.6 100.45 199.15 97.3001 202.3L106 208.5C106 208.5 116.4 206.8 131.1 195.35C146.05 183.4 138.6 170.45 138.6 170.45L163 141.5L178.95 142.7C178.95 142.7 206.45 149.65 215.4 175.5C233.15 126 204.4 93.2 202 90.8Z" fill="#94A6C4"/>
<path d="M230 70.25C234.35 72.15 237.7 75.05 240.85 77.65C219.15 2.95005 148.65 11.35 147.2 11.8C148.9 9.15005 155.15 5.10004 160.95 2.95004C160.95 2.95004 131 -7.59996 103.75 11.1C104.25 6.80005 109.55 0.350044 109.55 0.350044C71.9 16.35 69.5 35.5 76.75 47C70.7 44.15 64.7001 41.5 58.6501 38.6C40.05 29.75 24.15 22.3 23.15 22.1C21.45 21.6 20.75 22.35 20.75 22.35C20.75 22.35 20.0001 23.05 21.4501 24.5C43.4001 46.3 57.4 59.45 80.8 80.75C76.9501 89.35 76.4501 93.7 78.4 98.2C81.05 104.4 80.8 107.55 79.85 111.6C78.65 115.65 69.0001 151.8 67.3001 155.9C65.6001 160.2 52.8 174.55 52.6 179.35C52.35 184.15 56.2001 205.2 61.55 208.3C65.65 210.45 75.55 215 82.8 215.95C85.2001 216.45 87.65 216.2 88.85 215.25C93.7 212.15 94.9 211.65 98 211.9L98.7 212.15C99.9 212.4 101.35 212.85 103.3 213.1C107.4 213.6 112.7 213.6 117.05 210.7C123.35 205.9 133.95 199.95 137.55 196.8C141.9 192.5 144.8 186.5 144.8 179.8C144.8 173.8 148.9 169.05 153.5 164.25C157.85 159.95 168.7 149.4 173.05 144.85C184.15 148.7 188.25 164.5 188.25 173.1C188.25 197.05 168.7 232 123.8 234.6C122.1 234.6 120.4 234.85 118.5 234.85C60.1 234.85 12.3 183.65 12.3 123.55C12.3 76.15 41 44.05 41.25 43.8C18.05 65.65 4.30005 96.05 4.30005 130.05C4.30005 196.1 58.35 249.75 125 249.75C191.65 249.75 245.7 196.1 245.7 130.05C245.7 108.5 240.15 87.7 230 70.25ZM65.1501 54.9C61.75 52.05 58.4001 49.15 55 46.3C59.6 48.7 64.1501 51.1 68.25 53.25C80.8 59.7 91.2 65.4501 93.1 66.9C93.1 66.9 93.35 67.15 93.6 67.4C94.8 68.85 96 71.25 93.85 74.35C92.65 76.05 91.2 75.55 89 74.1C87.1 72.85 76.7501 64.7001 65.1501 54.9ZM135.4 179.35C135.4 183.4 133.45 187 131.05 189.65C129.85 190.85 125 193.95 121.65 196.1C118.25 198.5 114.65 200.65 111.75 202.8C110.55 203.5 108.6 204 105.45 203.5L97.95 202.55C102.55 198 115.1 188.2 119.2 186.25C124.05 183.85 126.9 181.2 124.75 175.7C122.8 169.95 115.35 170.2 115.35 170.2C115.35 170.2 119.95 169 123.55 169.5C118.95 167.6 112.7 168.05 109.55 170.2C106.15 172.6 105.2 182.4 103.05 188.4C100.9 194.6 96.05 197.25 88.8 202.3C84.7001 204.95 82.05 205.65 80.1 205.4C76 204.2 71.1501 202.05 67.8001 200.35C65.8501 196.75 63.4501 185.5 63.2001 180.95C64.1501 178.55 68.05 173.75 69.95 170.9C73.8 165.65 76 162.5 76.95 159.65C78.65 155.6 85.65 129.95 88.3 119.2C90.9501 123.75 94.6 131.4 92.9 135.7C101.6 126.6 97.75 115.85 95.8 111.5C94.1001 107.2 92.2001 98.8 96.05 90.7C99.65 82.55 112.2 60.55 112.2 60.55C112.2 60.55 114.35 66.3 118.95 65.8C123.3 65.3 165.05 18.9 165.05 18.9C165.05 18.9 171.55 40.45 159.5 53.6C147.45 66.75 137.3 68.2 137.3 68.2C137.3 68.2 150.8 72.5 164.8 65.35C168.4 78.3 171.55 91.7 171.55 93.35C170.6 95.05 157.05 117.55 155.85 118.95C155.35 119.45 151.5 119.9 149.1 119.9C144.75 120.6 142.1 120.85 140.9 121.6C138.95 122.8 127.85 143.6 122.55 153.65C117.7 154.35 112.9 156.05 109.05 160.6C111 159.65 116.55 159.65 120.65 159.65C124.25 159.9 134.15 167.05 135.35 178.3C135.4 179.15 135.4 179.15 135.4 179.35ZM107.15 189.4C109.8 186.55 110.3 181 110.75 179.35C111.25 177.65 112.2 174.55 114.35 174.3C116.5 174.05 121.1 175.5 120.65 179.1C120.15 182.45 116.55 182.7 113.65 184.35C111.75 185.6 107.6 188.95 107.15 189.4ZM212.15 192.55C209.25 161.9 188 147.55 178.6 142.75C189.45 141.55 217.45 133.2 202 90.8C202.5 92.7001 206.85 113.8 194.5 124.8C181.95 136.05 163.6 131.25 161.45 131.25C159.5 131 150.35 139.85 137.8 156.85C136.6 156.15 131.5 154.2 125.25 154.45C131.55 142.7 140.95 125.95 142.4 124.55C142.9 124.05 147 123.6 149.4 123.35C154.25 122.85 156.65 122.4 157.6 121.45C158.1 120.75 161.45 115.45 164.85 109.7C167 109.95 172.8 110.4 173.55 110.2C174.05 109.7 180.55 98.25 180.8 96.8C181.05 95.8501 176.45 77.9 173.55 66.4C233.15 94.4 242.55 156.15 212.15 192.55Z" fill="#1C324F"/>
<path d="M154.7 50.1C161.45 44.1 160.5 33.8 160.5 33.8L140.25 56.05C139.95 56.1 146.25 57.3 154.7 50.1Z" fill="#1C324F"/>
<path d="M78.8999 176.75L82.2999 167.2C82.2999 167.2 71.8999 180.35 70.9499 182.3C69.9999 184.45 70.4499 188.5 73.8499 188.75C77.2499 189 81.7999 184.7 82.2999 181.35C82.9999 176.75 78.8999 176.75 78.8999 176.75Z" fill="#1C324F"/>
<path d="M110.75 118.8C118 118.1 131 112.35 136.6 107.8C142.15 103 141.2 92.5 132.5 89.35C135.4 84.55 140.2 74.5 140.2 74.5C140.2 74.5 109.05 110.65 106.65 111.1C104.25 111.6 103.25 102.5 103.25 102.5C96.0501 120 108.35 124.3 110.75 118.8Z" fill="#1C324F"/>
<path d="M113.4 114.25L129.55 93.9C129.55 93.9 136.55 98.7 131.95 104.2C126.2 110.65 113.4 114.25 113.4 114.25Z" fill="#FFD925"/>
<path d="M156.4 23.55L145.3 35.5C136.35 38.15 127.7 42.9 119.45 50.8C119.45 46.3 132.75 26.4 156.4 23.55Z" fill="#D82423"/>
<path d="M170.4 33.85C170.65 30.75 170.4 27.15 169.9 23.8C184.4 25.7 201.5 34.1001 221.05 53.0001C204.9 44.1501 187.75 36 170.4 33.85Z" fill="#D82423"/>
<path d="M174.75 49.4C174.75 49.4 228.55 72.85 238.45 138.7C239.9 53 178.6 48.7 174.75 49.4Z" fill="#D82423"/>
<path d="M96.2999 11.6C95.5999 13.5 65.1499 45.85 103.05 58.5C82.2999 40.05 96.0499 11.8 96.2999 11.6Z" fill="#D82423"/>
<path d="M112.45 53.45C112.45 53.45 115.6 16.85 137.8 7C136.1 7.5 91.0001 21.15 112.45 53.45Z" fill="#D82423"/>
</g>
<defs>
<clipPath id="clip0_72_22015">
<rect width="250" height="250" fill="white"/>
</clipPath>
</defs>
</svg>

<svg fill="none" height="250" viewBox="0 0 250 250" width="250" xmlns="http://www.w3.org/2000/svg" xmlns:xlink="http://www.w3.org/1999/xlink"><clipPath id="a"><path d="m0 0h250v250h-250z"/></clipPath><g clip-path="url(#a)"><path d="m125 249.75c66.65 0 120.7-53.6 120.7-119.7s-54.05-119.7-120.7-119.7c-66.65.05-120.69995 53.6-120.69995 119.7s54.04995 119.7 120.69995 119.7z" fill="#ecf3ff"/><path d="m92.3999 57.05-42.25-16.75v6l36.2 32.3-2.4 33.5-10.85 45.5-14.5 20.35 3.6 28.7 18.1 2.4 14.5-2.4 14.5001 2.4 25.35-15.55 4.85-25.15 30.15-28.7 13.25 9.55 13.25 19.15v38.3l18.1-4.8 18.1-39.5 4.85-50.25-65.15-94.55-10.85-2.4z" fill="#fff"/><g fill="#94a6c4"><path d="m28.4499 126.25c.5-4.05.7-8.15 1.95-11.95 3.4-15.8 9.9-30.9 19.55-43.1 1.7-2.15 3.15-4.05 5.05-6l-10.85-10.05c-1.95 2.85-3.85 5.75-5.55 8.6-8.95 15.3-13.75 32.55-14.95 49.55-.5 4.3-.25 8.6-.25 12.7 0 4.3.5 8.4 1.2 12.7 1.2 8.4 3.4 16.5 6.3 24.2-1.95-8.15-2.9-16.3-3.15-24.65-.05-3.9-.05-7.95.7-12z"/><path d="m77.9499 48.7001c-6.05-2.8501-14.4999-6.7-20.4999-9.55 5.55-5.25 15.6999-10.7501 24.1499-14.3501-6.1 4.75-6.1 14.8-3.65 23.9001z"/><path d="m53.55 89.35c-3.4 8.4-5.55 17.25-6.3 25.85-.25 2.15-.5 4.3-.25 6.45 0 2.15 0 4.3.25 6.45l.25 3.4c0 .95.25 2.15.5 3.1l.95 6.45.25-6.45c0-.95 0-2.15.25-3.1l.5-3.1c.25-2.15.7-4.3.95-6.2.25-2.15.95-4.05 1.45-6 2.15-8.15 5.8-15.55 10.15-22.5 2.9-4.55 6.3-8.6 9.9-12.45l-9.4-8.85c-4.15 5.5-7.05 11-9.45 16.95z"/><path d="m193.3 48.45c-12.8-4.55-17.85-3.1-17.85-3.1s-7.95 21.3-38.4 22.75c.25.2 27.55 16 56.25-19.65z"/><path d="m202 90.8c-1.2 26.35-21.7 36.15-37.65 34.25-8.7-1.2-21.5 2.85-21.5 2.85l-16.15 27.75-5.3 1.9 9.15-16.75s-21.7 7.9-23.4 8.6-8.4499 10.55-13.9999 20.8c-1.2-7.2-5.8-12.2-5.8-12.45 0 1.2 2.4 22.75-.25 28.7-2.65 6.2-14.5 10.3-14.5 10.3l17.4 6.45 1.2.5 13.0499-12.2 4.85-18.2 6.05-4.3s14.95-1.7 12.8 11.75c-.95 6.45-8.2 6-16.4 11-4.85 2.85-11.1 7.4-14.2499 10.55l8.6999 6.2s10.4-1.7 25.1-13.15c14.95-11.95 7.5-24.9 7.5-24.9l24.4-28.95 15.95 1.2s27.5 6.95 36.45 32.8c17.75-49.5-11-82.3-13.4-84.7z"/></g><g fill="#1c324f"><path d="m230 70.25c4.35 1.9 7.7 4.8 10.85 7.4-21.7-74.69995-92.2-66.3-93.65-65.85 1.7-2.64995 7.95-6.69996 13.75-8.84996 0 0-29.95-10.55-57.2 8.14996.5-4.29995 5.8-10.749956 5.8-10.749956-37.65 15.999956-40.05 35.149956-32.8 46.649956-6.05-2.85-12.0499-5.5-18.0999-8.4-18.6001-8.85-34.5001-16.3-35.5001-16.5-1.7-.5-2.4.25-2.4.25s-.7499.7.7001 2.15c21.95 21.8 35.9499 34.95 59.3499 56.25-3.8499 8.6-4.3499 12.95-2.4 17.45 2.65 6.2 2.4 9.35 1.45 13.4-1.2 4.05-10.8499 40.2-12.5499 44.3-1.7 4.3-14.5001 18.65-14.7001 23.45-.25 4.8 3.6001 25.85 8.95 28.95 4.1 2.15 14 6.7 21.25 7.65 2.4001.5 4.85.25 6.05-.7 4.85-3.1 6.05-3.6 9.15-3.35l.7.25c1.2.25 2.65.7 4.6.95 4.1.5 9.4.5 13.75-2.4 6.3-4.8 16.9-10.75 20.5-13.9 4.35-4.3 7.25-10.3 7.25-17 0-6 4.1-10.75 8.7-15.55 4.35-4.3 15.2-14.85 19.55-19.4 11.1 3.85 15.2 19.65 15.2 28.25 0 23.95-19.55 58.9-64.45 61.5-1.7 0-3.4.25-5.3.25-58.4 0-106.2-51.2-106.2-111.3 0-47.4 28.7-79.5 28.95-79.75-23.2 21.85-36.94995 52.25-36.94995 86.25 0 66.05 54.04995 119.7 120.69995 119.7s120.7-53.65 120.7-119.7c0-21.55-5.55-42.35-15.7-59.8zm-164.8499-15.35c-3.4001-2.85-6.75-5.75-10.1501-8.6 4.6 2.4 9.1501 4.8 13.25 6.95 12.55 6.45 22.95 12.2001 24.85 13.65 0 0 .25.25.5.5 1.2 1.45 2.4 3.85.25 6.95-1.2 1.7-2.65 1.2-4.85-.25-1.9-1.25-12.2499-9.3999-23.8499-19.2zm70.2499 124.45c0 4.05-1.95 7.65-4.35 10.3-1.2 1.2-6.05 4.3-9.4 6.45-3.4 2.4-7 4.55-9.9 6.7-1.2.7-3.15 1.2-6.3.7l-7.5-.95c4.6-4.55 17.15-14.35 21.25-16.3 4.85-2.4 7.7-5.05 5.55-10.55-1.95-5.75-9.4-5.5-9.4-5.5s4.6-1.2 8.2-.7c-4.6-1.9-10.85-1.45-14 .7-3.4 2.4-4.35 12.2-6.5 18.2-2.15 6.2-7 8.85-14.25 13.9-4.0999 2.65-6.75 3.35-8.7 3.1-4.1-1.2-8.9499-3.35-12.2999-5.05-1.95-3.6-4.35-14.85-4.6-19.4.95-2.4 4.8499-7.2 6.7499-10.05 3.85-5.25 6.05-8.4 7-11.25 1.7-4.05 8.7-29.7 11.35-40.45 2.6501 4.55 6.3 12.2 4.6 16.5 8.7-9.1 4.85-19.85 2.9-24.2-1.6999-4.3-3.5999-12.7.25-20.8 3.6-8.15 16.15-30.15 16.15-30.15s2.15 5.75 6.75 5.25c4.35-.5 46.1-46.9 46.1-46.9s6.5 21.55-5.55 34.7-22.2 14.6-22.2 14.6 13.5 4.3 27.5-2.85c3.6 12.95 6.75 26.35 6.75 28-.95 1.7-14.5 24.2-15.7 25.6-.5.5-4.35.95-6.75.95-4.35.7-7 .95-8.2 1.7-1.95 1.2-13.05 22-18.35 32.05-4.85.7-9.65 2.4-13.5 6.95 1.95-.95 7.5-.95 11.6-.95 3.6.25 13.5 7.4 14.7 18.65.05.85.05.85.05 1.05zm-28.25 10.05c2.65-2.85 3.15-8.4 3.6-10.05.5-1.7 1.45-4.8 3.6-5.05s6.75 1.2 6.3 4.8c-.5 3.35-4.1 3.6-7 5.25-1.9 1.25-6.05 4.6-6.5 5.05zm105 3.15c-2.9-30.65-24.15-45-33.55-49.8 10.85-1.2 38.85-9.55 23.4-51.95.5 1.9001 4.85 23-7.5 34-12.55 11.25-30.9 6.45-33.05 6.45-1.95-.25-11.1 8.6-23.65 25.6-1.2-.7-6.3-2.65-12.55-2.4 6.3-11.75 15.7-28.5 17.15-29.9.5-.5 4.6-.95 7-1.2 4.85-.5 7.25-.95 8.2-1.9.5-.7 3.85-6 7.25-11.75 2.15.25 7.95.7 8.7.5.5-.5 7-11.95 7.25-13.4.25-.9499-4.35-18.9-7.25-30.4 59.6 28 69 89.75 38.6 126.15z"/><path d="m154.7 50.1c6.75-6 5.8-16.3 5.8-16.3l-20.25 22.25c-.3.05 6 1.25 14.45-5.95z"/><path d="m78.8999 176.75 3.4-9.55s-10.4 13.15-11.35 15.1c-.95 2.15-.5 6.2 2.9 6.45s7.95-4.05 8.45-7.4c.7-4.6-3.4-4.6-3.4-4.6z"/><path d="m110.75 118.8c7.25-.7 20.25-6.45 25.85-11 5.55-4.8 4.6-15.3-4.1-18.45 2.9-4.8 7.7-14.85 7.7-14.85s-31.15 36.15-33.55 36.6c-2.4.5-3.4-8.6-3.4-8.6-7.1999 17.5 5.1 21.8 7.5 16.3z"/></g><path d="m113.4 114.25 16.15-20.35s7 4.8 2.4 10.3c-5.75 6.45-18.55 10.05-18.55 10.05z" fill="#ffd925"/><g fill="#d82423"><path d="m156.4 23.55-11.1 11.95c-8.95 2.65-17.6 7.4-25.85 15.3 0-4.5 13.3-24.4 36.95-27.25z"/><path d="m170.4 33.85c.25-3.1 0-6.7-.5-10.05 14.5 1.9 31.6 10.3001 51.15 29.2001-16.15-8.85-33.3-17.0001-50.65-19.1501z"/><path d="m174.75 49.4s53.8 23.45 63.7 89.3c1.45-85.7-59.85-90-63.7-89.3z"/><path d="m96.2999 11.6c-.7 1.9-31.15 34.25 6.7501 46.9-20.7501-18.45-7.0001-46.7-6.7501-46.9z"/><path d="m112.45 53.45s3.15-36.6 25.35-46.45c-1.7.5-46.7999 14.15-25.35 46.45z"/></g></g></svg>
